assets/images/icon-apps.svg

<svg xmlns="http://www.w3.org/2000/svg" width="48" height="48" viewBox="0 0 48 48">
  <g fill="none" fill-rule="evenodd">
    <path fill="#BFC3C7" d="M25.3416408,24.6708204 L46.2111456,35.1055728 L46.2111456,35.1055728 C46.7051241,35.3525621 46.9053485,35.9532351 46.6583592,36.4472136 C46.5615955,36.640741 46.404673,36.7976635 46.2111456,36.8944272 L25.3416408,47.3291796 L25.3416408,47.3291796 C24.4970583,47.7514708 23.5029417,47.7514708 22.6583592,47.3291796 L1.78885438,36.8944272 L1.78885438,36.8944272 C1.29487588,36.6474379 1.09465154,36.0467649 1.34164079,35.5527864 C1.43840449,35.359259 1.59532698,35.2023365 1.78885438,35.1055728 L22.6583592,24.6708204 L22.6583592,24.6708204 C23.5029417,24.2485292 24.4970583,24.2485292 25.3416408,24.6708204 Z"/>
    <path fill="#B2D3FF" d="M25.3416408,12.6708204 L46.2111456,23.1055728 L46.2111456,23.1055728 C46.7051241,23.3525621 46.9053485,23.9532351 46.6583592,24.4472136 C46.5615955,24.640741 46.404673,24.7976635 46.2111456,24.8944272 L25.3416408,35.3291796 L25.3416408,35.3291796 C24.4970583,35.7514708 23.5029417,35.7514708 22.6583592,35.3291796 L1.78885438,24.8944272 L1.78885438,24.8944272 C1.29487588,24.6474379 1.09465154,24.0467649 1.34164079,23.5527864 C1.43840449,23.359259 1.59532698,23.2023365 1.78885438,23.1055728 L22.6583592,12.6708204 L22.6583592,12.6708204 C23.5029417,12.2485292 24.4970583,12.2485292 25.3416408,12.6708204 Z"/>
    <path fill="#197BFF" d="M25.3416408,0.670820393 L46.2111456,11.1055728 L46.2111456,11.1055728 C46.7051241,11.3525621 46.9053485,11.9532351 46.6583592,12.4472136 C46.5615955,12.640741 46.404673,12.7976635 46.2111456,12.8944272 L25.3416408,23.3291796 L25.3416408,23.3291796 C24.4970583,23.7514708 23.5029417,23.7514708 22.6583592,23.3291796 L1.78885438,12.8944272 L1.78885438,12.8944272 C1.29487588,12.6474379 1.09465154,12.0467649 1.34164079,11.5527864 C1.43840449,11.359259 1.59532698,11.2023365 1.78885438,11.1055728 L22.6583592,0.670820393 L22.6583592,0.670820393 C23.5029417,0.248529157 24.4970583,0.248529157 25.3416408,0.670820393 Z"/>
  </g>
</svg>

<svg xmlns="http://www.w3.org/2000/svg" width="48" height="48"><g fill="none" fill-rule="evenodd"><path fill="#BFC3C7" d="m25.342 24.67 20.87 10.436a1 1 0 0 1 0 1.788L25.341 47.33a3 3 0 0 1-2.684 0L1.788 36.894a1 1 0 0 1 0-1.788l20.87-10.435a3 3 0 0 1 2.684 0z"/><path fill="#B2D3FF" d="m25.342 12.67 20.87 10.436a1 1 0 0 1 0 1.788L25.341 35.33a3 3 0 0 1-2.684 0L1.788 24.894a1 1 0 0 1 0-1.788l20.87-10.435a3 3 0 0 1 2.684 0z"/><path fill="#197BFF" d="m25.342.67 20.87 10.436a1 1 0 0 1 0 1.788L25.341 23.33a3 3 0 0 1-2.684 0L1.788 12.894a1 1 0 0 1 0-1.788L22.659.67a3 3 0 0 1 2.684 0z"/></g></svg>
